X: 12816
T: Feeding The Birds
R: reel
M: 4/4
K: Gmajor
G3F|:DGGA B2ag|efdc AGGF|DGGA B2AG|1 AdcA G3F:|2 AdcA G3F||
|:DGGA B2ag|efdc AGGF|DGGA B2AG|1 AdcA G3F:|2 AdcA G4||
|:fgag fdde|~f3d cAG2|fgag fdd2|dgfa ~g3a|
b2af gfde|~f3d cAGF|DGGA B2AG|1 AdcA G4:|2 AdcA G3F||

